X: 11831
T: HURRAH FOR THE BONNETS OF BLUE
Q: "With spirit."
%R: jig
B: W. Hamilton "Universal Tune-Book" Vol. 1 Glasgow 1844 p.183 #1
S: http://imslp.org/wiki/Hamilton's_Universal_Tune-Book_(Various)
Z: 2016 John Chambers <jc:trillian.mit.edu>
M: 6/8
L: 1/8
K: G
% - - - - - - - - - - - - - - - - - - - - - - - - -
D |\
G>AG Bcd | D>ED DEF | G2e dBG | A3 ABA |\
G>AG B>cd | D>ED D2e | d>cB AGA | G3- G2 |]
G |\
FGA ABA | D3- DAG | FGA AB^c | d3 (d^c=c) |\
B2A GEF | G2A B2^d | eBA GAF | E3- E2 |]
F |\
G>AG B<dB | G3- G2D | GFe dBG | A3- ABc |\
B2A GAB | cde Hd2e | d>cB AGA | G3- G2 |]
% - - - - - - - - - - - - - - - - - - - - - - - - -

%%sep 1 1 500
%%sep 1 1 500

